!!!COM: Schubert, Franz
!!!CNT: Deutscher
!!!TXO: Deutsch
!!!OTL: "Der Jaeger"
!!!OPR: Die schoene Muellerin
!!!LYR: Mu2ller, Wilhelm
!!!OPS: Opus 25
!!!ONM: No. 14
!!!ODT: 1823/
!!NB: Vocal melody only encoded.
**kern	**silbe
*clefG2	*
*k[b-e-a-]	*
*M6/8	*
*MM[geschwind]	*
=4	=4
4r	.
8r	.
4r	.
{8g	{Was
=5	=5
8c	sucht
8e-	denn
8d	der
8c	Ja2-
8e-	-ger
8g	am
=6	=6
4a-	Mu2hl-
8f	-bach
4g}	hier?}
{8cc	{blieb',
=7	=7
8a-	tro-
8a-	-tzi-
8g	-ger
8f	Ja2-
8f	-ger,
8a-	in
=8	=8
8g	dei-
8g	-nem
8f	Re-
4e-}	-vier!}
{8g	{hier
=9	=9
8c	giebt
8e-	es
8d	kein
8c	Wild
8e-	|
8g	zu
=10	=10
8a-	ja-
8a-	-gen
8f	fu2r
4g}	dich,}
{8cc	{hier
=11	=11
8a-	wohnt
8a-	nur
8g	ein
8f	Reh-
8f	-lein,
8a-	ein
=12	=12
8g	zah-
8g	-mes,
8f	fu2r
4e-}	mich;}
{8g	{und
=13	=13
8f	willst
8f	du
8f	das
8g	za2rt-
8g	-li-
8g	-che
=14	=14
4bn	Reh-
8bn	-lein
4cc}	seh'n,}
{8g	{so
=15	=15
8f	lass
8f	dei-
8f	-ne
8g	Bu2ch-
8g	-sen
8g	im
=16	=16
4bn	Wal-
8bn	-de
4cc}	steh'n,}
{8cc	{und
=17	=17
8g	lass
8g	dei-
8g	-ne
8a-	klaf-
8b-	-fen-
8cc	-den
=18	=18
8dd	Hun-
8cc	-de
8b-	zu
4ee-}	Haus,}
{8g	{und
=19	=19
8g	lass
8g	auf
8g	dem
8a-	Hor-
8b-	-ne
8cc	den
=20	=20
8dd	Saus
8cc	|
8b-	und
4ee-}	Braus,}
{8b-	{und
=21	=21
8bn	schee-
8bn	-re
8bn	vom
8cc	Kin-
8cc	-ne
8cc	das
=22	=22
8dd	strup-
8dd	-pi-
8dd	-ge
4ee-}	Haar,}
{8ee-	{sonst
=23	=23
8gg	scheut
8ee-	sich
8ee-	im
8ee-	Gar-
8cc	-ten
8cc	das
=24	=24
8g	Reh-
8g	-lein
8g	fu2r-
4cc}	-wahr,}
{8g	{und
=25	=25
8bn	schee-
8bn	-re
8bn	vom
8cc	Kin-
8cc	-ne
8cc	das
=26	=26
8dd	strup-
8dd	-pi-
8dd	-ge
4ee-}	Haar,}
{8ee-	{sonst
=27	=27
8gg	scheut
8ee-	sich
8ee-	im
8ee-	Gar-
8cc	-ten
8cc	das
=28	=28
8g	Reh-
8g	-lein
8g	fu2r-
4cc}	-wahr.}
8r	.
*-	*-
